SFASUI/src/images/group-80.svg

<svg width="36" height="56" viewBox="0 0 36 56" fill="none" xmlns="http://www.w3.org/2000/svg">
<g filter="url(#filter0_i_81_6542)">
<path d="M11.6012 14.6716C10.7423 12.0478 10.6281 10.2697 10.6223 10.1565C8.98198 11.611 7.78064 13.5465 7.21729 15.7393C7.34898 15.7599 9.18683 16.0143 11.6012 14.6716Z" fill="#33CCCC"/>
<path d="M17.9517 7.3623C15.4627 7.3623 13.1741 8.19619 11.3231 9.58601C11.3334 9.7169 11.4958 11.5273 12.4206 14.1981C14.1882 13.0098 16.1797 10.9449 18.0015 7.36524C17.9839 7.36524 17.9693 7.3623 17.9517 7.3623Z" fill="#33CCCC"/>
<path d="M12.6898 17.5691C12.343 16.8176 12.0504 16.0984 11.8075 15.4248C9.15456 16.8764 7.1455 16.5484 6.99479 16.5205C6.87772 17.1691 6.80164 17.8323 6.80164 18.5162C6.80164 19.9369 7.07673 21.29 7.55814 22.5386C7.62545 22.4533 9.54232 20.0722 12.6898 17.5691Z" fill="#33CCCC"/>
<path d="M26.781 11.7698C24.9066 9.30053 22.0313 7.6401 18.7609 7.40332C18.7375 7.45038 18.717 7.49597 18.6921 7.54451C16.7211 11.3948 14.595 13.642 12.6942 14.9495C12.9269 15.5643 13.2049 16.2202 13.5224 16.9026C16.9391 14.3465 21.5748 11.8654 26.781 11.7698Z" fill="#33CCCC"/>
<path d="M28.7916 20.9769C28.9759 20.1724 29.0754 19.3355 29.0754 18.4752C29.0754 16.2794 28.4418 14.2337 27.3517 12.51C22.1879 12.5085 17.444 15.0426 13.9292 17.6472C14.257 18.3002 14.6286 18.9767 15.0457 19.6679C17.4044 18.2987 21.5513 18.1222 28.7916 20.9769Z" fill="#33CCCC"/>
<path d="M12.1704 28.0008C12.0958 27.6464 11.1359 22.7592 14.1283 20.2017C13.739 19.5502 13.3908 18.9119 13.082 18.2927C9.93163 20.7694 7.96647 23.1166 7.88745 23.2122C8.81955 25.1991 10.3179 26.8625 12.1704 28.0008Z" fill="#33CCCC"/>
<path d="M28.4755 21.9843C21.6333 19.0753 17.7278 19.1106 15.5183 20.3342C17.2011 22.955 19.5569 25.7567 22.8653 28.3863C25.4846 27.0906 27.52 24.7889 28.4755 21.9843Z" fill="#33CCCC"/>
<path d="M17.9253 29.5359C19.3403 29.5359 20.6924 29.2697 21.9376 28.7844C18.6482 26.2474 16.3158 23.5207 14.6579 20.9514C12.0108 23.4766 13.1639 28.4491 13.221 28.477C14.6476 29.1535 16.2397 29.5359 17.9253 29.5359Z" fill="#33CCCC"/>
<path d="M35.9893 18.0808C35.9893 8.09476 27.9356 0 18 0C8.06446 0 0.0106621 8.09476 0.0106621 18.0808C0.0106621 18.0808 -0.419537 23.5107 4.18535 32.0261C8.79023 40.5414 17.9985 56 17.9985 56C17.9985 56 27.2083 40.5429 31.8117 32.0261C36.4195 23.5107 35.9893 18.0808 35.9893 18.0808ZM28.2414 28.9126C24.8334 35.2469 18.019 46.7434 18.019 46.7434C18.0132 46.7316 18.0073 46.7213 18.0015 46.711C17.9956 46.7228 17.9898 46.7331 17.9839 46.7434C17.9839 46.7434 11.1695 35.2454 7.76156 28.9126C4.35362 22.5797 4.67115 18.5397 4.67115 18.5397C4.67115 11.1126 10.631 5.09158 17.9824 5.09158C17.9883 5.09158 17.9942 5.09158 18 5.09158C18.0059 5.09158 18.0117 5.09158 18.0176 5.09158C25.369 5.09158 31.3289 11.1126 31.3289 18.5397C31.3303 18.5397 31.6493 22.5783 28.2414 28.9126Z" fill="#33CCCC"/>
</g>
<defs>
<filter id="filter0_i_81_6542" x="0" y="0" width="36" height="60" filterUnits="userSpaceOnUse" color-interpolation-filters="sRGB">
<feFlood flood-opacity="0" result="BackgroundImageFix"/>
<feBlend mode="normal" in="SourceGraphic" in2="BackgroundImageFix" result="shape"/>
<feColorMatrix in="SourceAlpha" type="matrix" values="0 0 0 0 0 0 0 0 0 0 0 0 0 0 0 0 0 0 127 0" result="hardAlpha"/>
<feOffset dy="4"/>
<feGaussianBlur stdDeviation="2"/>
<feComposite in2="hardAlpha" operator="arithmetic" k2="-1" k3="1"/>
<feColorMatrix type="matrix" values="0 0 0 0 0 0 0 0 0 0 0 0 0 0 0 0 0 0 0.25 0"/>
<feBlend mode="normal" in2="shape" result="effect1_innerShadow_81_6542"/>
</filter>
</defs>
</svg>

<svg width="36" height="56" fill="none" xmlns="http://www.w3.org/2000/svg"><g filter="url(#a)" fill="#3CC"><path d="M11.601 14.672c-.859-2.624-.973-4.402-.979-4.516a11.176 11.176 0 0 0-3.405 5.583c.132.02 1.97.275 4.384-1.067ZM17.952 7.362c-2.49 0-4.778.834-6.629 2.224.01.13.173 1.941 1.098 4.612 1.767-1.188 3.759-3.253 5.58-6.833-.017 0-.032-.003-.05-.003ZM12.69 17.57a26.95 26.95 0 0 1-.883-2.145c-2.652 1.451-4.662 1.123-4.812 1.095a11.195 11.195 0 0 0-.193 1.996c0 1.42.275 2.774.756 4.023.067-.086 1.984-2.467 5.132-4.97Z"/><path d="M26.781 11.77a11.067 11.067 0 0 0-8.02-4.367c-.023.047-.044.093-.069.142-1.97 3.85-4.097 6.097-5.998 7.405.233.614.51 1.27.828 1.953 3.417-2.556 8.053-5.038 13.259-5.133Z"/><path d="M28.792 20.977a11.19 11.19 0 0 0-1.44-8.467c-5.164-.002-9.908 2.533-13.423 5.137.328.653.7 1.33 1.117 2.02 2.358-1.368 6.505-1.545 13.746 1.31ZM12.17 28c-.074-.354-1.034-5.24 1.958-7.798-.389-.652-.737-1.29-1.046-1.91-3.15 2.477-5.116 4.825-5.195 4.92a11.226 11.226 0 0 0 4.283 4.789Z"/><path d="M28.476 21.984c-6.843-2.909-10.748-2.873-12.958-1.65 1.683 2.621 4.039 5.423 7.347 8.052a11.176 11.176 0 0 0 5.61-6.402ZM17.925 29.536c1.415 0 2.767-.266 4.013-.752-3.29-2.537-5.622-5.263-7.28-7.833-2.647 2.526-1.494 7.498-1.437 7.526a10.943 10.943 0 0 0 4.704 1.059Z"/><path d="M35.99 18.08C35.99 8.096 27.935 0 18 0 8.064 0 .01 8.095.01 18.08c0 0-.43 5.43 4.175 13.946C8.79 40.541 18 56 18 56s9.21-15.457 13.813-23.974c4.607-8.515 4.177-13.945 4.177-13.945ZM28.24 28.914c-3.408 6.334-10.222 17.83-10.222 17.83l-.017-.032a.633.633 0 0 1-.018.032s-6.815-11.498-10.222-17.83C4.354 22.58 4.672 18.54 4.672 18.54c0-7.427 5.959-13.448 13.31-13.448h.036c7.351 0 13.31 6.02 13.31 13.448.002 0 .321 4.038-3.087 10.373Z"/></g><defs><filter id="a" x="0" y="0" width="36" height="60" filterUnits="userSpaceOnUse" color-interpolation-filters="sRGB"><feFlood flood-opacity="0" result="BackgroundImageFix"/><feBlend in="SourceGraphic" in2="BackgroundImageFix" result="shape"/><feColorMatrix in="SourceAlpha" values="0 0 0 0 0 0 0 0 0 0 0 0 0 0 0 0 0 0 127 0" result="hardAlpha"/><feOffset dy="4"/><feGaussianBlur stdDeviation="2"/><feComposite in2="hardAlpha" operator="arithmetic" k2="-1" k3="1"/><feColorMatrix values="0 0 0 0 0 0 0 0 0 0 0 0 0 0 0 0 0 0 0.25 0"/><feBlend in2="shape" result="effect1_innerShadow_81_6542"/></filter></defs></svg>
